src/animals-nature/plant-other/1F334.svg

<svg id="emoji" viewBox="0 0 72 72" xmlns="http://www.w3.org/2000/svg">
  <g id="grid">
    <path fill="#b3b3b3" d="M68,4V68H4V4H68m4-4H0V72H72V0Z"/>
    <path fill="none" stroke="#00a5ff" stroke-miterlimit="10" stroke-width="0.1" d="M12.923,10.9583H59.0769A1.9231,1.9231,0,0,1,61,12.8814V59.0352a1.9231,1.9231,0,0,1-1.9231,1.9231H12.9231A1.9231,1.9231,0,0,1,11,59.0352V12.8813A1.923,1.923,0,0,1,12.923,10.9583Z"/>
    <rect x="16" y="4" rx="2.2537" width="40" height="64" fill="none" stroke="#00a5ff" stroke-miterlimit="10" stroke-width="0.1"/>
    <rect x="16" y="4" rx="2.2537" width="40" height="64" transform="translate(72) rotate(90)" fill="none" stroke="#00a5ff" stroke-miterlimit="10" stroke-width="0.1"/>
    <circle cx="36" cy="36" r="29" fill="none" stroke="#00a5ff" stroke-miterlimit="10" stroke-width="0.1"/>
  </g>
  <g id="color">
    <path fill="#5c9e31" stroke="none" d="M36.2208,29.3157L36.2208,29.3157c-2.3045-4.2879-8.34-5.5242-13.4806-2.7614s-6.7397,8.181-4.4352,12.4689 l1.1937-1.279c1.8116-1.9229,2.6256-2.3028,4.8485-3.7454C24.3473,33.9988,30.4415,29.4652,36.2208,29.3157z"/>
    <path fill="#b1cc33" stroke="none" d="M37.2849,28.2487c-2.3394-0.8811-4.95-0.1607-6.9233,1.6466c-1.0336,0.9466-1.8924,2.1915-2.4457,3.6606 c-1.6096,4.2736-0.0246,8.8265,3.5401,10.1691v0C31.6696,38.1333,33.7566,32.5919,37.2849,28.2487L37.2849,28.2487z"/>
    <path fill="#5c9e31" stroke="none" d="M56.6092,19.9581L56.6092,19.9581c-1.7664-4.5362-7.6069-6.4968-13.0451-4.3791 c-3.4455,1.3417-5.903,3.9986-6.792,6.9192c-0.5142,1.6891-0.5038,3.4665,0.1435,5.1286 C36.9156,27.6268,45.5405,19.1688,56.6092,19.9581z"/>
    <path fill="#b1cc33" stroke="none" d="M61.7027,34.872c1.4992-5.6939-2.8192-11.7667-9.6454-13.564c-1.0578-0.2785-2.1138-0.438-3.1487-0.4875 c-5.6432-0.2699-10.6589,2.7314-11.9257,7.5429h0C45.6143,27.8051,54.4654,30.1356,61.7027,34.872L61.7027,34.872z"/>
    <path fill="#5c9e31" stroke="none" d="M12.2789,23.7435c0,0,12.538-0.9481,23.3468,2.6232l0.7806,0.4425c0,0,2.2411-6.8492-3.3024-9.7317 C28.4546,14.6598,16.7099,12.5599,12.2789,23.7435z"/>
  </g>
  <g id="hair"/>
  <g id="skin"/>
  <g id="skin-shadow"/>
  <g id="line">
    <path fill="none" stroke="#000000" stroke-linecap="round" stroke-linejoin="round" stroke-width="2" d="M39.9771,32.4424 c2.4273,6.8664,4.2771,16.8297,2.9406,30.3218"/>
    <path fill="none" stroke="#000000" stroke-linecap="round" stroke-linejoin="round" stroke-width="2" d="M36.2208,28.3157 L36.2208,28.3157c-2.3045-4.2879-8.34-5.5242-13.4806-2.7614s-7.4397,8.4785-5.1352,12.7664l0,0 c1.8116-1.9229,3.8637-3.6243,6.0866-5.0669"/>
    <path fill="none" stroke="#000000" stroke-linecap="round" stroke-linejoin="round" stroke-width="2" d="M56.4308,19.0312 L56.4308,19.0312c-2.0648-4.4084-8.0229-5.9754-13.308-3.5c-3.3485,1.5683-5.6233,4.3831-6.3158,7.3565 c-0.4005,1.7196-0.2716,3.4923,0.485,5.1077"/>
    <path fill="none" stroke="#000000" stroke-linecap="round" stroke-linejoin="round" stroke-width="2" d="M37.2849,28.2487 c-2.3394-0.8811-4.95-0.1607-6.9233,1.6466c-1.0336,0.9466-1.8924,2.1915-2.4457,3.6606 c-1.6096,4.2736-0.0246,8.8265,3.5401,10.1691v0C31.6696,38.1333,33.7566,32.5919,37.2849,28.2487L37.2849,28.2487z"/>
    <path fill="none" stroke="#000000" stroke-linecap="round" stroke-linejoin="round" stroke-width="2" d="M61.7027,34.872 c1.4992-5.6939-2.8192-11.7667-9.6454-13.564c-1.0578-0.2785-2.1138-0.438-3.1487-0.4875 c-5.6432-0.2699-10.6589,2.7314-11.9257,7.5429h0C45.6143,27.8051,54.4654,30.1356,61.7027,34.872L61.7027,34.872z"/>
    <path fill="none" stroke="#000000" stroke-linecap="round" stroke-linejoin="round" stroke-width="2" d="M34.1871,19.0106 c-0.088-0.085-0.1776-0.1693-0.2689-0.2527c-1.7757-1.624-4.1607-2.9465-6.8817-3.6185 c-6.8529-1.6926-13.5043,1.9432-14.7576,7.6962h0c2.2915-0.2474,4.6074-0.2905,6.9127-0.137"/>
    <line x1="56.4308" x2="55" y1="19.0312" y2="18.9064" fill="none" stroke="#000000" stroke-linecap="round" stroke-linejoin="round" stroke-width="2"/>
  </g>
</svg>

<svg viewBox="0 0 72 72" xmlns="http://www.w3.org/2000/svg"><path fill="#b3b3b3" d="M68 4v64H4V4h64m4-4H0v72h72V0z"/><path fill="none" stroke="#00a5ff" stroke-miterlimit="10" stroke-width=".1" d="M12.923 10.958h46.154A1.923 1.923 0 0161 12.881v46.154a1.923 1.923 0 01-1.923 1.923H12.923A1.923 1.923 0 0111 59.035V12.881a1.923 1.923 0 011.923-1.923z"/><rect x="16" y="4" rx="2.254" width="40" height="64" fill="none" stroke="#00a5ff" stroke-miterlimit="10" stroke-width=".1"/><rect x="16" y="4" rx="2.254" width="40" height="64" transform="rotate(90 36 36)" fill="none" stroke="#00a5ff" stroke-miterlimit="10" stroke-width=".1"/><circle cx="36" cy="36" r="29" fill="none" stroke="#00a5ff" stroke-miterlimit="10" stroke-width=".1"/><g stroke-linecap="round" stroke-miterlimit="10" stroke-width="6" stroke="#fff" fill="none" stroke-linejoin="round"><path d="M39.977 32.442c2.427 6.867 4.277 16.83 2.94 30.322M36.22 28.316h0c-2.304-4.288-8.34-5.524-13.48-2.762s-7.44 8.479-5.135 12.767h0a33.184 33.184 0 016.087-5.067M56.43 19.031h0c-2.064-4.408-8.022-5.975-13.307-3.5-3.349 1.568-5.623 4.383-6.316 7.357-.4 1.72-.272 3.492.485 5.107"/><path d="M37.285 28.249c-2.34-.881-4.95-.161-6.923 1.646a9.49 9.49 0 00-2.446 3.66c-1.61 4.275-.025 8.827 3.54 10.17v0c.214-5.592 2.3-11.133 5.829-15.476h0z"/><path d="M61.703 34.872c1.499-5.694-2.82-11.767-9.646-13.564a15.227 15.227 0 00-3.148-.487c-5.644-.27-10.66 2.73-11.926 7.542h0c8.631-.558 17.482 1.773 24.72 6.509h0zM34.187 19.01a13.25 13.25 0 00-.269-.252c-1.776-1.624-4.16-2.947-6.882-3.619-6.852-1.692-13.504 1.944-14.757 7.697h0a39.803 39.803 0 016.913-.137m37.239-3.668L55 18.906"/></g><path fill="#5c9e31" d="M36.22 29.316c-2.304-4.288-8.34-5.524-13.48-2.762s-6.74 8.181-4.435 12.47l1.194-1.28c1.811-1.923 2.625-2.303 4.848-3.745 0 0 6.095-4.534 11.874-4.683z"/><path fill="#b1cc33" d="M37.285 28.249c-2.34-.881-4.95-.161-6.923 1.646a9.49 9.49 0 00-2.446 3.66c-1.61 4.275-.025 8.827 3.54 10.17.214-5.592 2.3-11.133 5.829-15.476z"/><path fill="#5c9e31" d="M56.61 19.958c-1.767-4.536-7.608-6.497-13.046-4.379-3.445 1.342-5.903 3.999-6.792 6.92-.514 1.688-.504 3.466.144 5.128 0 0 8.625-8.458 19.693-7.669z"/><path fill="#b1cc33" d="M61.703 34.872c1.499-5.694-2.82-11.767-9.646-13.564a15.227 15.227 0 00-3.148-.487c-5.644-.27-10.66 2.73-11.926 7.542 8.631-.558 17.482 1.773 24.72 6.509z"/><path fill="#5c9e31" d="M12.279 23.744s12.538-.949 23.347 2.623l.78.442s2.241-6.849-3.302-9.732c-4.65-2.417-16.394-4.517-20.825 6.666z"/><g fill="none" stroke="#000" stroke-linecap="round" stroke-linejoin="round" stroke-width="2"><path d="M39.977 32.442c2.427 6.867 4.277 16.83 2.94 30.322M36.22 28.316h0c-2.304-4.288-8.34-5.524-13.48-2.762s-7.44 8.479-5.135 12.767h0a33.184 33.184 0 016.087-5.067M56.43 19.031h0c-2.064-4.408-8.022-5.975-13.307-3.5-3.349 1.568-5.623 4.383-6.316 7.357-.4 1.72-.272 3.492.485 5.107"/><path d="M37.285 28.249c-2.34-.881-4.95-.161-6.923 1.646a9.49 9.49 0 00-2.446 3.66c-1.61 4.275-.025 8.827 3.54 10.17v0c.214-5.592 2.3-11.133 5.829-15.476h0z"/><path d="M61.703 34.872c1.499-5.694-2.82-11.767-9.646-13.564a15.227 15.227 0 00-3.148-.487c-5.644-.27-10.66 2.73-11.926 7.542h0c8.631-.558 17.482 1.773 24.72 6.509h0zM34.187 19.01a13.25 13.25 0 00-.269-.252c-1.776-1.624-4.16-2.947-6.882-3.619-6.852-1.692-13.504 1.944-14.757 7.697h0a39.803 39.803 0 016.913-.137m37.239-3.668L55 18.906"/></g></svg>
